X: 1
T: Tam Lin
R: reel
M: 4/4
L: 1/8
K: Dmin
A,2DA, FA,DA,|B,2DB, FB,DB,|C2EC GCEC|FEDC A,DDC|
A,2DA, FA,DA,|B,2DB, FB,DB,|C2EC GCEC|FEDC A,DD2:|
|:dA~A2 FADA|dA~A2 FADA|cG~G2 EG~G2|cG~G2 cdec|
dA~A2 FADA|dA~A2 FADA,|~B,3A, B,CDE|FDEC A,DD2:|


Tune 248	Setting 28384

